X: 73
T: Także nas już na wieki, Boże nasz, opuścisz
C: Mikołaj Gomółka
%%abc-version 2.0
%%abcx-abcm2ps-target-version 5.9.1 (29 Sep 2008)
%%abc-creator hum2abc beta
%%abcx-conversion-date 2021/10/04 07:59:10
%%abc-edited-by Marta Lawrence
%%abcx-initial-encoding-date 2020-02-14
%%humdrum-veritas 647413998
%%humdrum-veritas-data 2161440373
%%linebreak <none>
%%barnumbers 0
L: 1/4
M: C|
N: Derived from pl-wn--sd-xvi-qu-273--074_gomolka-mikolaj--takze-nas-juz-na-wieki-boze-nasz-opuscisz.krn
%%staves [1 2 3 4]
V: 1
V: 2 clef=alto
V: 3 clef=alto
V: 4 clef=bass
K: F
[V:1] A4A2A4 [|] 
[V:2] F4F2E4 [|] 
[V:3] D4D2^C4 [|] 
[V:4] D,4D,2A,,4 [|] 
[V:1] F2B2B2 [|] 
[V:2] D2B,CDE [|] 
[V:3] D2D2B,2 [|] 
[V:4] D,2G,2G,2 [|] 
[V:1] A4d4 [|] 
[V:2] F2F2>E2D2 [|] 
[V:3] =C4D2B,2 [|] 
[V:4] F,2>E,2D,2G,2 [|] 
[V:1] ^c2d2B2B2 [|] 
[V:2] A2A2G3F [|] 
[V:3] A,2D2D4 [|] 
[V:4] A,2^F,2G,4 [|] 
[V:1] A4 :|]  
[V:2] E4 :|]  
[V:3] ^C4 :|]  
[V:4] A,4 :|]  
[V:1] c4 [I:setbarnb 6][|] 
[V:2] A4 [|] 
[V:3] F4 [|] 
[V:4] F,4 [|] 
[V:1] c2B4A2 [|] 
[V:2] G2G4F2 [|] 
[V:3] E2D4D2 [|] 
[V:4] C,2G,4D,2 [|] 
[V:1] A6A2 [|] 
[V:2] E6E2 [|] 
[V:3] ^C6=C2 [|] 
[V:4] A,,6A,,2 [|] 
[V:1] A2F2B2A2 [|] 
[V:2] F2D2>E2FE [|] 
[V:3] D2FED2C2 [|] 
[V:4] D,2D,2B,,2F,,2 [|] 
[V:1] A2G2A2A2 [|] 
[V:2] DCD2D2C2 [|] 
[V:3] B,2B,2A,2A,2 [|] 
[V:4] G,,2G,,2D,2F,2 [|] 
[V:1] F2G2A2B2 [|] 
[V:2] D2E2A2GF [|] 
[V:3] F2E2F2D2 [|] 
[V:4] D,2C,2F,2G,2 [|] 
[V:1] c2>B2A2A2 [|] 
[V:2] E4E2F2 [|] 
[V:3] C4C2A,=B, [|] 
[V:4] A,4A,2A,,2 [|] 
[V:1] A2G2A4 [|] 
[V:2] E2DEF2ED [|] 
[V:3] C2D4^C=B, [|] 
[V:4] A,,2B,,2A,,4 [|] 
[V:1] x4x32 |]  
[V:2] EF2EF32 |]  
[V:3] ^CD2=B,D32 |]  
[V:4] A,,4D,32 |]  


